Infinity-Icons/Infinity-Dark-Icons/apps/48/diffuse.svg

<svg width="48" xmlns="http://www.w3.org/2000/svg" height="48">
 <defs>
  <linearGradient id="a" y1="543.8" y2="503.8" x2="0" gradientUnits="userSpaceOnUse">
   <stop stop-color="#faae2a"/>
   <stop offset="1" stop-color="#ffc35a"/>
  </linearGradient>
  <linearGradient id="b" y1="34" y2="13" x2="0" gradientUnits="userSpaceOnUse">
   <stop stop-color="#2a2c2f"/>
   <stop offset="1" stop-color="#424649"/>
  </linearGradient>
  <linearGradient id="c" y1="13" x1="13" y2="31" x2="31" gradientUnits="userSpaceOnUse">
   <stop stop-color="#383e51"/>
   <stop offset="1" stop-color="#655c6f" stop-opacity="0"/>
  </linearGradient>
 </defs>
 <g transform="translate(-384.57-499.8)">
  <path fill="url(#a)" fill-rule="evenodd" d="m388.57 523.8l20 20 20-20-20-20z"/>
  <path stroke-opacity=".55" fill="url(#b)" stroke-width="2.8" d="m25 13v6.986l-4 4 .014.014h-.014v10h2v-9.186l2-2v11.186h2v-21z" transform="translate(384.57 499.8)"/>
  <g fill-rule="evenodd" transform="translate(384.57 499.8)">
   <path fill="#e78220" d="m4.5 23.5l-.5.5 20 20 20-20-.5-.5-19.5 19.5z"/>
   <path opacity=".2" fill="url(#c)" d="m27 13v21h-2l.012-11.207-2.01 2v9.205h-2l6.5 6.5 13.5-13.5z"/>
  </g>
 </g>
</svg>

<?xml version="1.0" encoding="UTF-8" standalone="no"?>
<svg
   width="48"
   height="48"
   version="1.1"
   id="svg31"
   sodipodi:docname="diffuse.svg"
   inkscape:version="1.2.1 (9c6d41e410, 2022-07-14)"
   xmlns:inkscape="http://www.inkscape.org/namespaces/inkscape"
   xmlns:sodipodi="http://sodipodi.sourceforge.net/DTD/sodipodi-0.dtd"
   xmlns:xlink="http://www.w3.org/1999/xlink"
   xmlns="http://www.w3.org/2000/svg"
   xmlns:svg="http://www.w3.org/2000/svg">
  <sodipodi:namedview
     id="namedview33"
     pagecolor="#ffffff"
     bordercolor="#666666"
     borderopacity="1.0"
     inkscape:showpageshadow="2"
     inkscape:pageopacity="0.0"
     inkscape:pagecheckerboard="0"
     inkscape:deskcolor="#d1d1d1"
     showgrid="false"
     inkscape:zoom="4.9166667"
     inkscape:cx="24"
     inkscape:cy="24.20339"
     inkscape:window-width="1920"
     inkscape:window-height="1011"
     inkscape:window-x="0"
     inkscape:window-y="0"
     inkscape:window-maximized="1"
     inkscape:current-layer="svg31" />
  <defs
     id="defs17">
    <linearGradient
       id="a"
       y1="543.8"
       y2="503.8"
       x2="0"
       gradientUnits="userSpaceOnUse">
      <stop
         stop-color="#faae2a"
         id="stop2" />
      <stop
         offset="1"
         stop-color="#ffc35a"
         id="stop4" />
    </linearGradient>
    <linearGradient
       id="b"
       y1="34"
       y2="13"
       x2="0"
       gradientUnits="userSpaceOnUse">
      <stop
         stop-color="#2a2c2f"
         id="stop7" />
      <stop
         offset="1"
         stop-color="#424649"
         id="stop9" />
    </linearGradient>
    <linearGradient
       id="c"
       y1="13"
       x1="13"
       y2="31"
       x2="31"
       gradientUnits="userSpaceOnUse">
      <stop
         stop-color="#383e51"
         id="stop12" />
      <stop
         offset="1"
         stop-color="#655c6f"
         stop-opacity="0"
         id="stop14" />
    </linearGradient>
    <linearGradient
       id="b-3"
       x1="1.0583"
       x2="11.642"
       y1="285.07999"
       y2="296.22"
       gradientTransform="matrix(3.9685346,0,0,3.7701079,-1.200194,-1071.7858)"
       gradientUnits="userSpaceOnUse">
      <stop
         stop-color="#535a61"
         offset="0"
         id="stop24"
         style="stop-color:#6a747c;stop-opacity:1;" />
      <stop
         stop-color="#333c45"
         offset="1"
         id="stop26"
         style="stop-color:#414f58;stop-opacity:1;" />
    </linearGradient>
    <linearGradient
       id="l"
       x1="27.447001"
       x2="25.966"
       y1="289.76001"
       y2="289.76001"
       gradientTransform="matrix(3.7416535,0,0,3.8209051,-67.149303,-1083.1477)"
       gradientUnits="userSpaceOnUse">
      <stop
         stop-color="#1881ce"
         offset="0"
         id="stop19" />
      <stop
         stop-color="#2980b9"
         offset="1"
         id="stop21" />
    </linearGradient>
    <linearGradient
       id="i"
       x1="7.8635001"
       x2="11.642"
       y1="288.34"
       y2="292.10999"
       gradientUnits="userSpaceOnUse"
       xlink:href="#a-6"
       gradientTransform="matrix(3.9685346,0,0,3.9685346,-1.2001947,-1129.4605)" />
    <linearGradient
       id="a-6">
      <stop
         stop-color="#232629"
         offset="0"
         id="stop2-7" />
      <stop
         stop-opacity="0"
         offset="1"
         id="stop4-5" />
    </linearGradient>
    <linearGradient
       id="j"
       x1="10.692"
       x2="34.026001"
       y1="14.134"
       y2="29.068001"
       gradientTransform="matrix(0.98999064,0,0,1.0109445,1.865538,3.7942404)"
       gradientUnits="userSpaceOnUse">
      <stop
         stop-color="#349cd2"
         offset="0"
         id="stop7-3" />
      <stop
         stop-color="#2694d9"
         offset=".74017"
         id="stop9-5" />
      <stop
         stop-color="#0e6daa"
         offset="1"
         id="stop11" />
    </linearGradient>
    <linearGradient
       id="h"
       x1="3.4561"
       x2="9.3148003"
       y1="287.76001"
       y2="293.60999"
       gradientUnits="userSpaceOnUse"
       xlink:href="#a-6"
       gradientTransform="matrix(3.9685346,0,0,3.9685346,-1.2001947,-1129.4605)" />
    <linearGradient
       id="k"
       x1="21.274"
       x2="27.447001"
       y1="291.29999"
       y2="287.35001"
       gradientTransform="matrix(3.7416535,0,0,3.8209051,-67.149303,-1083.1477)"
       gradientUnits="userSpaceOnUse">
      <stop
         stop-color="#1d99f3"
         offset="0"
         id="stop14-6" />
      <stop
         stop-color="#3daee9"
         offset="1"
         id="stop16" />
    </linearGradient>
    <linearGradient
       id="a-2"
       y1="543.79999"
       y2="503.79999"
       x2="0"
       gradientUnits="userSpaceOnUse">
      <stop
         stop-color="#faae2a"
         id="stop2-9" />
      <stop
         offset="1"
         stop-color="#ffc35a"
         id="stop4-1" />
    </linearGradient>
    <linearGradient
       id="b-2"
       y1="34"
       y2="13"
       x2="0"
       gradientUnits="userSpaceOnUse">
      <stop
         stop-color="#2a2c2f"
         id="stop7-7" />
      <stop
         offset="1"
         stop-color="#424649"
         id="stop9-0" />
    </linearGradient>
    <linearGradient
       id="c-9"
       y1="13"
       x1="13"
       y2="31"
       x2="31"
       gradientUnits="userSpaceOnUse">
      <stop
         stop-color="#383e51"
         id="stop12-3" />
      <stop
         offset="1"
         stop-color="#655c6f"
         stop-opacity="0"
         id="stop14-60" />
    </linearGradient>
  </defs>
  <rect
     x="2.9997056"
     y="3.0004754"
     width="41.999001"
     height="41.999001"
     rx="20.9995"
     ry="20.9995"
     fill="url(#b)"
     id="rect33"
     style="fill:url(#b-3);stroke-width:3.96853" />
  <g
     transform="matrix(0.85,0,0,0.85,-323.28529,-421.23002)"
     id="g29-6">
    <path
       fill-rule="evenodd"
       d="m 388.57,523.8 20,20 20,-20 -20,-20 z"
       id="path19-2"
       style="fill:url(#a-2)" />
    <path
       stroke-opacity="0.55"
       stroke-width="2.8"
       d="m 25,13 v 6.986 l -4,4 L 21.014,24 H 21 v 10 h 2 v -9.186 l 2,-2 V 34 h 2 V 13 Z"
       transform="translate(384.57,499.8)"
       id="path21-6"
       style="fill:url(#b-2)" />
    <g
       fill-rule="evenodd"
       transform="translate(384.57,499.8)"
       id="g27-1">
      <path
         fill="#e78220"
         d="M 4.5,23.5 4,24 24,44 44,24 43.5,23.5 24,43 Z"
         id="path23-8" />
      <path
         opacity="0.2"
         fill="url(#c)"
         d="m 27,13 v 21 h -2 l 0.012,-11.207 -2.01,2 v 9.205 h -2 l 6.5,6.5 13.5,-13.5 z"
         id="path25-7"
         style="fill:url(#c-9)" />
    </g>
  </g>
</svg>
